svgs/light/drone-front.svg

<svg xmlns="http://www.w3.org/2000/svg" viewBox="0 0 640 512"><!--! Font Awesome Pro 6.5.1 by @fontawesome - https://fontawesome.com License - https://fontawesome.com/license (Commercial License) Copyright 2023 Fonticons, Inc. --><path d="M144 96c8.8 0 16 7.2 16 16v16H272c8.8 0 16 7.2 16 16s-7.2 16-16 16H16c-8.8 0-16-7.2-16-16s7.2-16 16-16H128V112c0-8.8 7.2-16 16-16zm352 0c8.8 0 16 7.2 16 16v16H624c8.8 0 16 7.2 16 16s-7.2 16-16 16H368c-8.8 0-16-7.2-16-16s7.2-16 16-16H480V112c0-8.8 7.2-16 16-16zM128 256V192h32v55.1l12.6 7.9 50.6-33.7C251.9 202.2 285.5 192 320 192s68.1 10.2 96.8 29.3L467.4 255l12.6-7.9V192h32v64c0 5.5-2.8 10.6-7.5 13.6l-58.1 36.3 7.7 9.2c16.8 20.1 26 45.5 26 71.7V400c0 8.8-7.2 16-16 16s-16-7.2-16-16V386.8c0-18.7-6.6-36.8-18.5-51.2L419 323l-42.5 26.6c-2.5 1.6-5.5 2.4-8.5 2.4H272c-3 0-5.9-.8-8.5-2.4L221 323l-10.5 12.6c-12 14.4-18.5 32.5-18.5 51.2V400c0 8.8-7.2 16-16 16s-16-7.2-16-16V386.8c0-26.2 9.2-51.6 26-71.7l7.7-9.2-58.1-36.3c-4.7-2.9-7.5-8.1-7.5-13.6zm309.6 17.6l-38.5-25.7C375.7 232.3 348.1 224 320 224s-55.6 8.3-79.1 23.9l-38.5 25.7L276.6 320h86.8l74.2-46.4z"/></svg>

<svg xmlns="http://www.w3.org/2000/svg" viewBox="0 0 640 512"><!--! Font Awesome Pro 6.1.1 by @fontawesome - https://fontawesome.com License - https://fontawesome.com/license (Commercial License) Copyright 2022 Fonticons, Inc. --><path d="M144 96C152.8 96 160 103.2 160 112V128H272C280.8 128 288 135.2 288 144C288 152.8 280.8 160 272 160H16C7.164 160 0 152.8 0 144C0 135.2 7.164 128 16 128H128V112C128 103.2 135.2 96 144 96zM496 96C504.8 96 512 103.2 512 112V128H624C632.8 128 640 135.2 640 144C640 152.8 632.8 160 624 160H368C359.2 160 352 152.8 352 144C352 135.2 359.2 128 368 128H480V112C480 103.2 487.2 96 496 96zM128 256V192H160V247.1L172.6 255L223.2 221.3C251.9 202.2 285.5 192 320 192C354.5 192 388.1 202.2 416.8 221.3L467.4 255L480 247.1V192H512V256C512 261.5 509.2 266.6 504.5 269.6L446.4 305.9L454 315.1C470.8 335.2 480 360.6 480 386.8V400C480 408.8 472.8 416 464 416C455.2 416 448 408.8 448 400V386.8C448 368 441.4 349.9 429.5 335.5L419 322.1L376.5 349.6C373.9 351.2 370.1 352 368 352H272C269 352 266.1 351.2 263.5 349.6L221 322.1L210.5 335.5C198.6 349.9 192 368 192 386.8V400C192 408.8 184.8 416 176 416C167.2 416 160 408.8 160 400V386.8C160 360.6 169.2 335.2 185.1 315.1L193.6 305.9L135.5 269.6C130.8 266.6 128 261.5 128 256V256zM437.6 273.6L399.1 247.9C375.7 232.3 348.1 223.1 320 223.1C291.9 223.1 264.4 232.3 240.9 247.9L202.4 273.6L276.6 320H363.4L437.6 273.6z"/></svg>
